; G-Code generated by Simplify3D(R) Version 4.0.0
; Jan 1, 2018 at 8:05:23 PM
; Settings Summary
;   processName,Process1
;   applyToModels,1aa6ea84-7a49-4533-b7d2-5dd3be9783a6
;   profileName,Prusa Research Original Prusa i3 MK2 (modified)
;   profileVersion,2017-10-24 19:30:49
;   baseProfile,
;   printMaterial,PLA
;   printQuality,High
;   printExtruders,
;   extruderName,Primary Extruder
;   extruderToolheadNumber,0
;   extruderDiameter,0.4
;   extruderAutoWidth,1
;   extruderWidth,0.48
;   extrusionMultiplier,1
;   extruderUseRetract,1
;   extruderRetractionDistance,1.5
;   extruderExtraRestartDistance,0
;   extruderRetractionZLift,0.5
;   extruderRetractionSpeed,1800
;   extruderUseCoasting,1
;   extruderCoastingDistance,0.2
;   extruderUseWipe,1
;   extruderWipeDistance,2
;   primaryExtruder,0
;   layerHeight,0.1
;   topSolidLayers,4
;   bottomSolidLayers,4
;   perimeterOutlines,2
;   printPerimetersInsideOut,1
;   startPointOption,2
;   startPointOriginX,0
;   startPointOriginY,0
;   sequentialIslands,0
;   spiralVaseMode,0
;   firstLayerHeightPercentage,150
;   firstLayerWidthPercentage,100
;   firstLayerUnderspeed,0.5
;   useRaft,1
;   raftExtruder,0
;   raftTopLayers,3
;   raftBaseLayers,2
;   raftOffset,3
;   raftSeparationDistance,0.14
;   raftTopInfill,100
;   aboveRaftSpeedMultiplier,0.3
;   useSkirt,1
;   skirtExtruder,0
;   skirtLayers,2
;   skirtOutlines,2
;   skirtOffset,5
;   usePrimePillar,0
;   primePillarExtruder,999
;   primePillarWidth,12
;   primePillarLocation,7
;   primePillarSpeedMultiplier,1
;   useOozeShield,0
;   oozeShieldExtruder,999
;   oozeShieldOffset,2
;   oozeShieldOutlines,1
;   oozeShieldSidewallShape,1
;   oozeShieldSidewallAngle,30
;   oozeShieldSpeedMultiplier,1
;   infillExtruder,0
;   internalInfillPattern,Fast Honeycomb
;   externalInfillPattern,Rectilinear
;   infillPercentage,20
;   outlineOverlapPercentage,20
;   infillExtrusionWidthPercentage,100
;   minInfillLength,5
;   infillLayerInterval,1
;   internalInfillAngles,0
;   overlapInternalInfillAngles,0
;   externalInfillAngles,45,-45
;   generateSupport,1
;   supportExtruder,0
;   supportInfillPercentage,40
;   supportExtraInflation,0
;   supportBaseLayers,0
;   denseSupportExtruder,0
;   denseSupportLayers,0
;   denseSupportInfillPercentage,20
;   supportLayerInterval,1
;   supportHorizontalPartOffset,0.3
;   supportUpperSeparationLayers,1
;   supportLowerSeparationLayers,1
;   supportType,0
;   supportGridSpacing,4
;   maxOverhangAngle,45
;   supportAngles,0
;   temperatureName,Primary Extruder,Heated Bed
;   temperatureNumber,0,0
;   temperatureSetpointCount,1,1
;   temperatureSetpointLayers,1,1
;   temperatureSetpointTemperatures,210,80
;   temperatureStabilizeAtStartup,1,1
;   temperatureHeatedBed,0,1
;   temperatureRelayBetweenLayers,0,0
;   temperatureRelayBetweenLoops,0,0
;   fanLayers,1,2
;   fanSpeeds,0,40
;   blipFanToFullPower,0
;   adjustSpeedForCooling,1
;   minSpeedLayerTime,15
;   minCoolingSpeedSlowdown,20
;   increaseFanForCooling,0
;   minFanLayerTime,45
;   maxCoolingFanSpeed,100
;   increaseFanForBridging,0
;   bridgingFanSpeed,100
;   use5D,1
;   relativeEdistances,0
;   allowEaxisZeroing,1
;   independentExtruderAxes,0
;   includeM10123,0
;   stickySupport,1
;   applyToolheadOffsets,0
;   gcodeXoffset,0
;   gcodeYoffset,0
;   gcodeZoffset,0
;   overrideMachineDefinition,1
;   machineTypeOverride,0
;   strokeXoverride,250
;   strokeYoverride,210
;   strokeZoverride,200
;   originOffsetXoverride,0
;   originOffsetYoverride,0
;   originOffsetZoverride,0
;   homeXdirOverride,-1
;   homeYdirOverride,-1
;   homeZdirOverride,-1
;   flipXoverride,1
;   flipYoverride,-1
;   flipZoverride,1
;   toolheadOffsets,0,0|0,0|0,0|0,0|0,0|0,0
;   overrideFirmwareConfiguration,1
;   firmwareTypeOverride,RepRap (Marlin/Repetier/Sprinter)
;   GPXconfigOverride,r2
;   baudRateOverride,250000
;   overridePrinterModels,1
;   printerModelsOverride
;   startingGcode,M115 U3.0.7 ; use the latest firmware version,G28 W ; home all axes without mesh bed leveling,G80 ; run mesh bed leveling routine,G1 Y-3.0 F1000.0 ; prepare to prime,G92 E0 ; reset extrusion distance,G1 X60.0 E9.0  F1000.0 ; priming,G1 X100.0 E12.5  F1000.0 ; priming
;   layerChangeGcode,
;   retractionGcode,
;   toolChangeGcode,
;   endingGcode,M106 S0 ; turn off cooling fan,M104 S0 ; turn off extruder,M140 S0 ; turn off bed,G1 X0 Y200 ; part removal,M84 ; disable motors
;   exportFileFormat,gcode
;   celebration,0
;   celebrationSong,Random Song
;   postProcessing,
;   defaultSpeed,1800
;   outlineUnderspeed,0.8
;   solidInfillUnderspeed,0.8
;   supportUnderspeed,0.8
;   rapidXYspeed,4800
;   rapidZspeed,1000
;   minBridgingArea,50
;   bridgingExtraInflation,0
;   bridgingExtrusionMultiplier,1
;   bridgingSpeedMultiplier,1
;   useFixedBridgingAngle,0
;   fixedBridgingAngle,0
;   applyBridgingToPerimeters,0
;   filamentDiameters,1.75|1.75|1.75|1.75|1.75|1.75
;   filamentPricesPerKg,46|46|46|46|46|46
;   filamentDensities,1.25|1.25|1.25|1.25|1.25|1.25
;   useMinPrintHeight,0
;   minPrintHeight,0
;   useMaxPrintHeight,0
;   maxPrintHeight,11.5
;   useDiaphragm,0
;   diaphragmLayerInterval,20
;   robustSlicing,1
;   mergeAllIntoSolid,0
;   onlyRetractWhenCrossingOutline,1
;   retractBetweenLayers,1
;   useRetractionMinTravel,0
;   retractionMinTravel,3
;   retractWhileWiping,1
;   onlyWipeOutlines,1
;   avoidCrossingOutline,0
;   maxMovementDetourFactor,3
;   toolChangeRetractionDistance,12
;   toolChangeExtraRestartDistance,-0.5
;   toolChangeRetractionSpeed,600
;   externalThinWallType,0
;   internalThinWallType,2
;   thinWallAllowedOverlapPercentage,25
;   singleExtrusionMinLength,1
;   singleExtrusionMinPrintingWidthPercentage,50
;   singleExtrusionMaxPrintingWidthPercentage,200
;   singleExtrusionEndpointExtension,0.2
;   horizontalSizeCompensation,0
G90
M82
M106 S0
M140 S80
M190 S80
M104 S210 T0
M109 S210 T0
M115 U3.0.7 ; use the latest firmware version
G28 W ; home all axes without mesh bed leveling
G80 ; run mesh bed leveling routine
G1 Y-3.0 F1000.0 ; prepare to prime
G92 E0 ; reset extrusion distance
G1 X60.0 E9.0  F1000.0 ; priming
G1 X100.0 E12.5  F1000.0 ; priming
G92 E0
G1 E-1.5000 F1800
G1 Z1.250 F1000
; process Process1
; layer 1, Z = 0.750
T0
; tool H0.750 W0.480
; skirt
G1 X93.773 Y82.810 F4800
G1 Z0.750 F1000
G1 E0.0000 F540
G92 E0
G1 X98.662 Y77.921 E1.0348 F900
G1 X98.927 Y77.812 E1.0777
G1 X102.741 Y77.812 E1.6485
G1 X103.504 Y77.049 E1.8100
G1 X103.769 Y76.939 E1.8529
G1 X115.162 Y76.939 E3.5582
G1 X115.427 Y77.049 E3.6011
G1 X116.063 Y77.685 E3.7356
G1 X116.328 Y77.574 E3.7785
G1 X127.722 Y77.574 E5.4838
G1 X127.987 Y77.684 E5.5267
G1 X128.214 Y77.911 E5.5749
G1 X129.530 Y77.911 E5.7718
G1 X129.692 Y77.750 E5.8060
G1 X129.956 Y77.640 E5.8489
G1 X141.350 Y77.640 E7.5542
G1 X141.615 Y77.750 E7.5971
G1 X141.953 Y78.088 E7.6688
G1 X147.095 Y78.088 E8.4383
G1 X147.359 Y78.198 E8.4811
G1 X148.324 Y79.163 E8.6853
G1 X152.455 Y79.163 E9.3036
G1 X152.719 Y79.272 E9.3465
G1 X157.608 Y84.161 E10.3813
G1 X157.718 Y84.426 E10.4241
G1 X157.718 Y91.069 E11.4184
G1 X157.885 Y91.236 E11.4539
G1 X157.995 Y91.501 E11.4967
G1 X157.995 Y99.216 E12.6515
G1 X158.021 Y99.242 E12.6569
G1 X158.130 Y99.507 E12.6998
G1 X158.130 Y110.900 E14.4051
G1 X158.060 Y111.071 E14.4328
G1 X158.060 Y118.829 E15.5939
G1 X158.058 Y118.834 E15.5947
G1 X158.058 Y126.112 E16.6840
G1 X157.948 Y126.376 E16.7268
G1 X153.059 Y131.265 E17.7616
G1 X152.794 Y131.375 E17.8045
G1 X151.927 Y131.375 E17.9343
G1 X150.100 Y133.202 E18.3211
G1 X149.835 Y133.312 E18.3640
G1 X143.959 Y133.312 E19.2435
G1 X143.830 Y133.365 E19.2643
G1 X137.928 Y133.365 E20.1477
G1 X137.799 Y133.419 E20.1687
G1 X126.405 Y133.419 E21.8740
G1 X126.140 Y133.309 E21.9169
G1 X125.865 Y133.034 E21.9752
G1 X120.789 Y133.034 E22.7349
G1 X120.620 Y133.202 E22.7706
G1 X120.356 Y133.312 E22.8134
G1 X109.874 Y133.312 E24.3822
G1 X109.849 Y133.322 E24.3863
G1 X98.455 Y133.322 E26.0916
G1 X98.190 Y133.212 E26.1345
G1 X93.302 Y128.324 E27.1693
G1 X93.192 Y128.059 E27.2122
G1 X93.192 Y116.665 E28.9175
G1 X93.302 Y116.400 E28.9604
G1 X93.519 Y116.183 E29.0063
G1 X93.179 Y115.844 E29.0782
G1 X93.070 Y115.579 E29.1211
G1 X93.070 Y104.185 E30.8264
G1 X93.179 Y103.921 E30.8693
G1 X94.552 Y102.548 E31.1598
G1 X92.065 Y100.061 E31.6861
G1 X91.955 Y99.797 E31.7290
G1 X91.955 Y88.403 E33.4343
G1 X92.065 Y88.138 E33.4772
G1 X93.664 Y86.539 E33.8157
G1 X93.664 Y83.075 E34.3342
G1 X93.697 Y82.994 E34.3473
G1 X93.773 Y82.810 F900
G92 E0
G1 E-1.5000 F1800
G1 Z1.250 F1000
G1 X94.180 Y83.082 F4800
G1 Z0.750 F1000
G1 E0.0000 F1800
G92 E0
G1 X98.934 Y78.328 E1.0062 F900
G1 X99.022 Y78.292 E1.0205
G1 X102.940 Y78.292 E1.6068
G1 X103.776 Y77.456 E1.7838
G1 X103.864 Y77.419 E1.7981
G1 X115.067 Y77.419 E3.4748
G1 X115.155 Y77.456 E3.4891
G1 X116.063 Y78.363 E3.6812
G1 X116.335 Y78.091 E3.7389
G1 X116.424 Y78.054 E3.7532
G1 X127.626 Y78.054 E5.4300
G1 X127.715 Y78.091 E5.4443
G1 X128.015 Y78.391 E5.5079
G1 X129.729 Y78.391 E5.7644
G1 X129.964 Y78.157 E5.8140
G1 X130.052 Y78.120 E5.8283
G1 X141.255 Y78.120 E7.5051
G1 X141.343 Y78.157 E7.5194
G1 X141.755 Y78.568 E7.6065
G1 X146.999 Y78.568 E8.3915
G1 X147.087 Y78.605 E8.4057
G1 X148.125 Y79.643 E8.6254
G1 X152.359 Y79.643 E9.2591
G1 X152.447 Y79.679 E9.2734
G1 X157.201 Y84.433 E10.2796
G1 X157.238 Y84.521 E10.2939
G1 X157.238 Y91.267 E11.3036
G1 X157.479 Y91.508 E11.3546
G1 X157.515 Y91.596 E11.3689
G1 X157.515 Y99.415 E12.5391
G1 X157.614 Y99.514 E12.5600
G1 X157.650 Y99.602 E12.5743
G1 X157.650 Y110.805 E14.2511
G1 X157.614 Y110.893 E14.2654
G1 X157.580 Y110.927 E14.2726
G1 X157.580 Y118.733 E15.4409
G1 X157.578 Y118.738 E15.4417
G1 X157.578 Y126.016 E16.5310
G1 X157.541 Y126.104 E16.5453
G1 X152.787 Y130.858 E17.5515
G1 X152.699 Y130.895 E17.5658
G1 X151.728 Y130.895 E17.7111
G1 X149.828 Y132.795 E18.1133
G1 X149.740 Y132.832 E18.1276
G1 X143.840 Y132.832 E19.0107
G1 X143.823 Y132.848 E19.0142
G1 X143.735 Y132.885 E19.0285
G1 X137.809 Y132.885 E19.9155
G1 X137.791 Y132.902 E19.9191
G1 X137.703 Y132.939 E19.9334
G1 X126.500 Y132.939 E21.6102
G1 X126.412 Y132.902 E21.6245
G1 X126.064 Y132.554 E21.6982
G1 X120.590 Y132.554 E22.5175
G1 X120.348 Y132.795 E22.5686
G1 X120.260 Y132.832 E22.5829
G1 X109.778 Y132.832 E24.1517
G1 X109.753 Y132.842 E24.1557
G1 X98.550 Y132.842 E25.8325
G1 X98.462 Y132.806 E25.8468
G1 X93.708 Y128.052 E26.8530
G1 X93.672 Y127.964 E26.8673
G1 X93.672 Y116.761 E28.5440
G1 X93.708 Y116.672 E28.5583
G1 X94.198 Y116.183 E28.6618
G1 X93.586 Y115.572 E28.7913
G1 X93.550 Y115.484 E28.8056
G1 X93.550 Y104.281 E30.4823
G1 X93.586 Y104.192 E30.4966
G1 X95.230 Y102.548 E30.8446
G1 X92.472 Y99.789 E31.4286
G1 X92.435 Y99.701 E31.4429
G1 X92.435 Y88.498 E33.1196
G1 X92.472 Y88.410 E33.1339
G1 X94.144 Y86.738 E33.4879
G1 X94.144 Y83.275 E34.0061
G1 X94.144 Y83.170 F900
G1 X94.180 Y83.082 F900
G92 E0
G1 E-1.5000 F1800
G1 Z1.250 F1000
; tool H0.750 W0.800
; raft
G1 X99.784 Y85.455 F4800
G1 Z0.750 F1000
G1 E0.0000 F1800
G92 E0
G1 X101.307 Y83.932 E0.5373 F225
G1 X105.276 Y83.932 E1.5274
G1 X106.149 Y83.059 E1.8352
G1 X112.782 Y83.059 E3.4901
G1 X113.857 Y84.134 E3.8692
G1 X118.268 Y84.134 E4.9696
G1 X118.708 Y83.694 E5.1247
G1 X125.342 Y83.694 E6.7795
G1 X125.679 Y84.031 E6.8984
G1 X132.065 Y84.031 E8.4914
G1 X132.336 Y83.760 E8.5871
G1 X138.970 Y83.760 E10.2420
G1 X139.418 Y84.208 E10.4001
G1 X144.715 Y84.208 E11.7212
G1 X145.789 Y85.283 E12.1002
G1 X150.075 Y85.283 E13.1693
G1 X151.598 Y86.806 E13.7066
G1 X151.598 Y93.603 E15.4023
G1 X151.875 Y93.881 E15.5002
G1 X151.875 Y100.515 E17.1550
G1 X151.257 Y101.133 E17.3731
G1 X152.010 Y101.887 E17.6390
G1 X152.010 Y108.520 E19.2938
G1 X151.328 Y109.203 E19.5346
G1 X151.940 Y109.815 E19.7504
G1 X151.940 Y116.449 E21.4052
G1 X151.614 Y116.774 E21.5201
G1 X151.938 Y117.098 E21.6342
G1 X151.938 Y123.732 E23.2890
G1 X150.415 Y125.255 E23.8263
G1 X148.978 Y125.255 E24.1846
G1 X148.978 Y125.669 E24.2879
G1 X147.455 Y127.192 E24.8251
G1 X141.504 Y127.192 E26.3097
G1 X141.450 Y127.245 E26.3286
G1 X135.472 Y127.245 E27.8198
G1 X135.419 Y127.299 E27.8387
G1 X128.785 Y127.299 E29.4936
G1 X128.400 Y126.914 E29.6293
G1 X122.579 Y126.914 E31.0815
G1 X122.497 Y126.833 E31.1101
G1 X118.335 Y126.833 E32.1485
G1 X117.976 Y127.192 E32.2752
G1 X111.342 Y127.192 E33.9300
G1 X110.752 Y126.602 E34.1382
G1 X108.069 Y126.602 E34.8073
G1 X107.469 Y127.202 E35.0191
G1 X100.835 Y127.202 E36.6739
G1 X99.312 Y125.679 E37.2112
G1 X99.312 Y119.045 E38.8661
G1 X100.835 Y117.522 E39.4034
G1 X101.500 Y117.522 E39.5693
G1 X101.500 Y114.722 E40.2677
G1 X100.713 Y114.722 E40.4641
G1 X99.190 Y113.199 E41.0014
G1 X99.190 Y106.565 E42.6562
G1 X100.713 Y105.042 E43.1935
G1 X101.500 Y105.042 E43.3900
G1 X101.500 Y98.940 E44.9122
G1 X99.598 Y98.940 E45.3867
G1 X98.075 Y97.417 E45.9239
G1 X98.075 Y90.783 E47.5788
G1 X99.784 Y89.074 E48.1816
G1 X99.784 Y85.655 E49.0345
G1 X99.784 Y85.455 F225
G92 E0
G1 E-1.5000 F1800
G1 Z1.250 F1000
G1 X109.700 Y112.150 F4800
G1 Z0.750 F1000
G1 E0.0000 F1800
G92 E0
G1 X109.700 Y114.950 E0.6985 F225
G1 X140.300 Y114.950 E8.3317
G1 X140.300 Y112.150 E9.0301
G1 X109.900 Y112.150 E16.6134
G1 X109.700 Y112.150 F225
G92 E0
G1 E-1.5000 F1800
G1 Z1.250 F1000
G1 X105.911 Y84.429 F4800
G1 Z0.750 F1000
G1 E0.0000 F1800
G92 E0
G1 X113.020 Y84.429 E1.7735 F225
G1 X113.526 Y84.934 E1.9518
G1 X118.600 Y84.934 E3.2175
G1 X119.039 Y84.494 E3.3726
G1 X125.011 Y84.494 E4.8621
G1 X125.348 Y84.831 E4.9811
G1 X132.397 Y84.831 E6.7394
G1 X132.668 Y84.560 E6.8351
G1 X138.639 Y84.560 E8.3246
G1 X139.087 Y85.008 E8.4827
G1 X144.383 Y85.008 E9.8039
G1 X145.458 Y86.083 E10.1829
G1 X149.743 Y86.083 E11.2519
G1 X150.375 Y86.714 E11.4748
G1 X100.584 Y86.714 E23.8953
G1 X100.584 Y89.000 E24.4655
G1 X150.798 Y89.000 E36.9914
G1 X150.798 Y91.286 E37.5616
G1 X98.875 Y91.286 E50.5138
G1 X98.875 Y93.571 E51.0839
G1 X150.798 Y93.571 E64.0361
G1 X150.798 Y93.935 E64.1268
G1 X151.075 Y94.212 E64.2246
G1 X151.075 Y95.857 E64.6349
G1 X98.875 Y95.857 E77.6563
G1 X98.875 Y97.085 E77.9627
G1 X99.929 Y98.140 E78.3346
G1 X102.300 Y98.140 E78.9260
G1 X102.300 Y98.143 E78.9268
G1 X151.075 Y98.143 E91.0938
G1 X151.075 Y100.183 E91.6028
G1 X150.830 Y100.429 E91.6893
G1 X102.300 Y100.429 E103.7951
G1 X102.300 Y102.714 E104.3653
G1 X151.210 Y102.714 E116.5660
G1 X151.210 Y105.000 E117.1362
G1 X102.300 Y105.000 E129.3370
G1 X102.300 Y105.842 E129.5470
G1 X101.044 Y105.842 E129.8604
G1 X99.990 Y106.897 E130.2323
G1 X99.990 Y107.286 E130.3294
G1 X151.210 Y107.286 E143.1065
G1 X151.210 Y108.189 E143.3319
G1 X150.197 Y109.203 E143.6895
G1 X150.565 Y109.571 E143.8195
G1 X99.990 Y109.571 E156.4356
G1 X99.990 Y111.857 E157.0058
G1 X108.900 Y111.857 E159.2285
G1 X108.900 Y114.143 E159.7987
G1 X102.300 Y114.143 E161.4450
G1 X102.300 Y116.429 E162.0152
G1 X150.828 Y116.429 E174.1207
G1 X150.483 Y116.774 E174.2426
G1 X151.138 Y117.429 E174.4736
G1 X151.138 Y118.714 E174.7942
G1 X100.774 Y118.714 E187.3574
G1 X100.112 Y119.376 E187.5910
G1 X100.112 Y121.000 E187.9960
G1 X151.138 Y121.000 E200.7244
G1 X151.138 Y123.286 E201.2946
G1 X100.112 Y123.286 E214.0230
G1 X100.112 Y125.348 E214.5373
G1 X100.336 Y125.571 E214.6163
G1 X147.744 Y125.571 E226.4423
G1 X147.944 Y125.571 F225
G92 E0
G1 E-1.5000 F1800
G1 Z1.250 F1000
G1 X141.100 Y114.143 F4800
G1 Z0.750 F1000
G1 E0.0000 F1800
G92 E0
G1 X151.140 Y114.143 E2.5044 F225
G1 X151.140 Y111.857 E3.0746
G1 X141.300 Y111.857 E5.5291
G1 X141.100 Y111.857 F225
G92 E0
G1 E-1.5000 F1800
G1 Z1.750 F1000
; layer 2, Z = 1.250
M106 S102
; tool H0.500 W0.480
; skirt
G1 X158.060 Y111.071 F4800
G1 Z1.250 F1000
G1 E0.0000 F1800
G92 E0
G1 X158.060 Y118.829 E0.7740 F1800
G1 X158.058 Y118.834 E0.7746
G1 X158.058 Y126.112 E1.5008
G1 X157.948 Y126.376 E1.5293
G1 X153.059 Y131.265 E2.2192
G1 X152.794 Y131.375 E2.2478
G1 X151.927 Y131.375 E2.3343
G1 X150.100 Y133.202 E2.5922
G1 X149.835 Y133.312 E2.6208
G1 X143.959 Y133.312 E3.2071
G1 X143.830 Y133.365 E3.2210
G1 X137.928 Y133.365 E3.8099
G1 X137.799 Y133.419 E3.8239
G1 X126.405 Y133.419 E4.9608
G1 X126.140 Y133.309 E4.9894
