; G-Code generated by Simplify3D(R) Version 4.0.0
; Jan 1, 2018 at 1:34:35 PM
; Settings Summary
;   processName,Process1
;   applyToModels,3bc027bb-54f3-453a-a6a9-3fc66b5d4068
;   profileName,Prusa Research Original Prusa i3 MK2 (modified)
;   profileVersion,2017-10-24 19:30:49
;   baseProfile,
;   printMaterial,PLA
;   printQuality,High
;   printExtruders,
;   extruderName,Primary Extruder
;   extruderToolheadNumber,0
;   extruderDiameter,0.4
;   extruderAutoWidth,1
;   extruderWidth,0.48
;   extrusionMultiplier,1
;   extruderUseRetract,1
;   extruderRetractionDistance,1.5
;   extruderExtraRestartDistance,0
;   extruderRetractionZLift,0.5
;   extruderRetractionSpeed,1800
;   extruderUseCoasting,1
;   extruderCoastingDistance,0.2
;   extruderUseWipe,1
;   extruderWipeDistance,2
;   primaryExtruder,0
;   layerHeight,0.1
;   topSolidLayers,4
;   bottomSolidLayers,4
;   perimeterOutlines,2
;   printPerimetersInsideOut,1
;   startPointOption,2
;   startPointOriginX,0
;   startPointOriginY,0
;   sequentialIslands,0
;   spiralVaseMode,0
;   firstLayerHeightPercentage,150
;   firstLayerWidthPercentage,100
;   firstLayerUnderspeed,0.5
;   useRaft,0
;   raftExtruder,0
;   raftTopLayers,3
;   raftBaseLayers,2
;   raftOffset,3
;   raftSeparationDistance,0.14
;   raftTopInfill,100
;   aboveRaftSpeedMultiplier,0.3
;   useSkirt,1
;   skirtExtruder,0
;   skirtLayers,2
;   skirtOutlines,2
;   skirtOffset,5
;   usePrimePillar,0
;   primePillarExtruder,999
;   primePillarWidth,12
;   primePillarLocation,7
;   primePillarSpeedMultiplier,1
;   useOozeShield,0
;   oozeShieldExtruder,999
;   oozeShieldOffset,2
;   oozeShieldOutlines,1
;   oozeShieldSidewallShape,1
;   oozeShieldSidewallAngle,30
;   oozeShieldSpeedMultiplier,1
;   infillExtruder,0
;   internalInfillPattern,Fast Honeycomb
;   externalInfillPattern,Rectilinear
;   infillPercentage,15
;   outlineOverlapPercentage,20
;   infillExtrusionWidthPercentage,100
;   minInfillLength,5
;   infillLayerInterval,1
;   internalInfillAngles,0
;   overlapInternalInfillAngles,0
;   externalInfillAngles,45,-45
;   generateSupport,1
;   supportExtruder,0
;   supportInfillPercentage,40
;   supportExtraInflation,0
;   supportBaseLayers,0
;   denseSupportExtruder,0
;   denseSupportLayers,0
;   denseSupportInfillPercentage,70
;   supportLayerInterval,1
;   supportHorizontalPartOffset,0.3
;   supportUpperSeparationLayers,1
;   supportLowerSeparationLayers,1
;   supportType,0
;   supportGridSpacing,4
;   maxOverhangAngle,45
;   supportAngles,0
;   temperatureName,Primary Extruder,Heated Bed
;   temperatureNumber,0,0
;   temperatureSetpointCount,1,1
;   temperatureSetpointLayers,1,1
;   temperatureSetpointTemperatures,210,80
;   temperatureStabilizeAtStartup,1,1
;   temperatureHeatedBed,0,1
;   temperatureRelayBetweenLayers,0,0
;   temperatureRelayBetweenLoops,0,0
;   fanLayers,1,2
;   fanSpeeds,0,40
;   blipFanToFullPower,0
;   adjustSpeedForCooling,1
;   minSpeedLayerTime,15
;   minCoolingSpeedSlowdown,20
;   increaseFanForCooling,0
;   minFanLayerTime,45
;   maxCoolingFanSpeed,100
;   increaseFanForBridging,0
;   bridgingFanSpeed,100
;   use5D,1
;   relativeEdistances,0
;   allowEaxisZeroing,1
;   independentExtruderAxes,0
;   includeM10123,0
;   stickySupport,1
;   applyToolheadOffsets,0
;   gcodeXoffset,0
;   gcodeYoffset,0
;   gcodeZoffset,0
;   overrideMachineDefinition,1
;   machineTypeOverride,0
;   strokeXoverride,250
;   strokeYoverride,210
;   strokeZoverride,200
;   originOffsetXoverride,0
;   originOffsetYoverride,0
;   originOffsetZoverride,0
;   homeXdirOverride,-1
;   homeYdirOverride,-1
;   homeZdirOverride,-1
;   flipXoverride,1
;   flipYoverride,-1
;   flipZoverride,1
;   toolheadOffsets,0,0|0,0|0,0|0,0|0,0|0,0
;   overrideFirmwareConfiguration,1
;   firmwareTypeOverride,RepRap (Marlin/Repetier/Sprinter)
;   GPXconfigOverride,r2
;   baudRateOverride,250000
;   overridePrinterModels,1
;   printerModelsOverride
;   startingGcode,M115 U3.0.7 ; use the latest firmware version,G28 W ; home all axes without mesh bed leveling,G80 ; run mesh bed leveling routine,G1 Y-3.0 F1000.0 ; prepare to prime,G92 E0 ; reset extrusion distance,G1 X60.0 E9.0  F1000.0 ; priming,G1 X100.0 E12.5  F1000.0 ; priming
;   layerChangeGcode,
;   retractionGcode,
;   toolChangeGcode,
;   endingGcode,M106 S0 ; turn off cooling fan,M104 S0 ; turn off extruder,M140 S0 ; turn off bed,G1 X0 Y200 ; part removal,M84 ; disable motors
;   exportFileFormat,gcode
;   celebration,0
;   celebrationSong,Random Song
;   postProcessing,
;   defaultSpeed,1800
;   outlineUnderspeed,0.8
;   solidInfillUnderspeed,0.8
;   supportUnderspeed,0.8
;   rapidXYspeed,4800
;   rapidZspeed,1000
;   minBridgingArea,50
;   bridgingExtraInflation,0
;   bridgingExtrusionMultiplier,1
;   bridgingSpeedMultiplier,1
;   useFixedBridgingAngle,0
;   fixedBridgingAngle,0
;   applyBridgingToPerimeters,0
;   filamentDiameters,1.75|1.75|1.75|1.75|1.75|1.75
;   filamentPricesPerKg,46|46|46|46|46|46
;   filamentDensities,1.25|1.25|1.25|1.25|1.25|1.25
;   useMinPrintHeight,0
;   minPrintHeight,0
;   useMaxPrintHeight,0
;   maxPrintHeight,11.5
;   useDiaphragm,0
;   diaphragmLayerInterval,20
;   robustSlicing,1
;   mergeAllIntoSolid,0
;   onlyRetractWhenCrossingOutline,1
;   retractBetweenLayers,1
;   useRetractionMinTravel,0
;   retractionMinTravel,3
;   retractWhileWiping,1
;   onlyWipeOutlines,1
;   avoidCrossingOutline,0
;   maxMovementDetourFactor,3
;   toolChangeRetractionDistance,12
;   toolChangeExtraRestartDistance,-0.5
;   toolChangeRetractionSpeed,600
;   externalThinWallType,0
;   internalThinWallType,2
;   thinWallAllowedOverlapPercentage,25
;   singleExtrusionMinLength,1
;   singleExtrusionMinPrintingWidthPercentage,50
;   singleExtrusionMaxPrintingWidthPercentage,200
;   singleExtrusionEndpointExtension,0.2
;   horizontalSizeCompensation,0
G90
M82
M106 S0
M140 S80
M190 S80
M104 S210 T0
M109 S210 T0
M115 U3.0.7 ; use the latest firmware version
G28 W ; home all axes without mesh bed leveling
G80 ; run mesh bed leveling routine
G1 Y-3.0 F1000.0 ; prepare to prime
G92 E0 ; reset extrusion distance
G1 X60.0 E9.0  F1000.0 ; priming
G1 X100.0 E12.5  F1000.0 ; priming
G92 E0
G1 E-1.5000 F1800
G1 Z0.650 F1000
; process Process1
; layer 1, Z = 0.150
T0
; tool H0.150 W0.480
; skirt
G1 X49.021 Y47.890 F4800
G1 Z0.150 F1000
G1 E0.0000 F540
G92 E0
G1 X49.286 Y47.780 E0.0086 F900
G1 X200.714 Y47.780 E4.5415
G1 X200.979 Y47.890 E4.5500
G1 X204.110 Y51.021 E4.6826
G1 X204.220 Y51.286 E4.6912
G1 X204.220 Y158.714 E7.9069
G1 X204.110 Y158.979 E7.9155
G1 X200.979 Y162.110 E8.0481
G1 X200.714 Y162.220 E8.0567
G1 X49.286 Y162.220 E12.5895
G1 X49.021 Y162.110 E12.5981
G1 X45.890 Y158.979 E12.7307
G1 X45.780 Y158.714 E12.7393
G1 X45.780 Y51.286 E15.9550
G1 X45.890 Y51.021 E15.9636
G1 X48.880 Y48.031 E16.0902
G1 X49.021 Y47.890 F900
G1 X49.293 Y48.297 F4800
G92 E0
G1 X49.381 Y48.260 E0.0029 F900
G1 X200.619 Y48.260 E4.5300
G1 X200.707 Y48.297 E4.5329
G1 X203.703 Y51.293 E4.6597
G1 X203.740 Y51.381 E4.6626
G1 X203.740 Y158.619 E7.8727
G1 X203.703 Y158.707 E7.8755
G1 X200.707 Y161.703 E8.0024
G1 X200.619 Y161.740 E8.0052
G1 X49.381 Y161.740 E12.5324
G1 X49.293 Y161.703 E12.5352
G1 X46.297 Y158.707 E12.6621
G1 X46.260 Y158.619 E12.6649
G1 X46.260 Y51.381 E15.8750
G1 X46.297 Y51.293 E15.8779
G1 X49.152 Y48.438 E15.9987
G1 X49.293 Y48.297 F900
G92 E0
G1 E-1.5000 F1800
G1 Z0.650 F1000
; inner perimeter
G1 X52.220 Y54.220 F4800
G1 Z0.150 F1000
G1 E0.0000 F1800
G92 E0
G1 X197.780 Y54.220 E4.3572 F810
G1 X197.780 Y155.780 E7.3973
G1 X52.220 Y155.780 E11.7545
G1 X52.220 Y54.420 E14.7887
G1 X52.220 Y54.220 F810
; outer perimeter
G1 X51.740 Y53.740 F4800
G92 E0
G1 X198.260 Y53.740 E4.3859 F720
G1 X198.260 Y156.260 E7.4548
G1 X51.740 Y156.260 E11.8407
G1 X51.740 Y53.940 E14.9036
G1 X51.740 Y53.740 F720
G1 X53.740 Y53.740 F1800
; inner perimeter
G1 X112.089 Y77.416 F4800
G92 E0
G1 X111.591 Y79.180 E0.0549 F810
G1 X111.312 Y80.996 E0.1099
G1 X111.255 Y82.835 E0.1649
G1 X111.423 Y84.666 E0.2200
G1 X111.813 Y86.460 E0.2749
G1 X112.418 Y88.188 E0.3297
G1 X113.228 Y89.821 E0.3843
G1 X114.231 Y91.333 E0.4386
G1 X115.411 Y92.699 E0.4927
G1 X116.749 Y93.897 E0.5464
G1 X118.223 Y94.906 E0.5999
G1 X119.809 Y95.709 E0.6531
G1 X121.481 Y96.292 E0.7061
G1 X123.210 Y96.647 E0.7590
G1 X124.970 Y96.765 E0.8117
G1 X126.729 Y96.647 E0.8645
G1 X128.459 Y96.292 E0.9174
G1 X130.131 Y95.709 E0.9704
G1 X131.717 Y94.906 E1.0236
G1 X133.190 Y93.897 E1.0771
G1 X134.528 Y92.699 E1.1308
G1 X135.708 Y91.333 E1.1849
G1 X136.712 Y89.821 E1.2392
G1 X137.522 Y88.188 E1.2938
G1 X138.127 Y86.460 E1.3485
G1 X138.516 Y84.666 E1.4035
G1 X138.684 Y82.835 E1.4585
G1 X138.628 Y80.996 E1.5136
G1 X138.349 Y79.180 E1.5686
G1 X137.851 Y77.415 E1.6235
G1 X137.142 Y75.731 E1.6782
G1 X136.233 Y74.156 E1.7326
G1 X135.139 Y72.713 E1.7868
G1 X133.878 Y71.429 E1.8407
G1 X132.469 Y70.323 E1.8943
G1 X130.936 Y69.416 E1.9477
G1 X129.304 Y68.721 E2.0008
G1 X127.600 Y68.251 E2.0537
G1 X125.851 Y68.014 E2.1065
G1 X124.088 Y68.014 E2.1593
G1 X122.340 Y68.251 E2.2121
G1 X120.636 Y68.721 E2.2650
G1 X119.003 Y69.416 E2.3181
G1 X117.470 Y70.323 E2.3714
G1 X116.062 Y71.429 E2.4250
G1 X114.800 Y72.713 E2.4789
G1 X113.706 Y74.155 E2.5331
G1 X112.798 Y75.731 E2.5876
G1 X112.166 Y77.231 E2.6363
G1 X112.089 Y77.416 F810
; outer perimeter
G1 X112.543 Y77.574 F4800
G92 E0
G1 X112.061 Y79.282 E0.0531 F720
G1 X111.790 Y81.040 E0.1064
G1 X111.736 Y82.820 E0.1597
G1 X111.899 Y84.593 E0.2130
G1 X112.276 Y86.329 E0.2661
G1 X112.861 Y88.001 E0.3192
G1 X113.645 Y89.581 E0.3719
G1 X114.614 Y91.043 E0.4245
G1 X115.754 Y92.362 E0.4767
G1 X117.046 Y93.518 E0.5286
G1 X118.468 Y94.492 E0.5801
G1 X119.997 Y95.266 E0.6314
G1 X121.608 Y95.829 E0.6825
G1 X123.275 Y96.170 E0.7335
G1 X124.970 Y96.284 E0.7843
G1 X126.664 Y96.170 E0.8351
G1 X128.331 Y95.829 E0.8861
G1 X129.942 Y95.266 E0.9372
G1 X131.472 Y94.492 E0.9885
G1 X132.894 Y93.518 E1.0401
G1 X134.185 Y92.362 E1.0919
G1 X135.325 Y91.043 E1.1441
G1 X136.295 Y89.581 E1.1967
G1 X137.079 Y88.001 E1.2494
G1 X137.664 Y86.329 E1.3025
G1 X138.041 Y84.593 E1.3557
G1 X138.203 Y82.820 E1.4089
G1 X138.149 Y81.040 E1.4622
G1 X137.879 Y79.282 E1.5155
G1 X137.397 Y77.574 E1.5686
G1 X136.711 Y75.945 E1.6215
G1 X135.832 Y74.421 E1.6742
G1 X134.775 Y73.028 E1.7265
G1 X133.557 Y71.787 E1.7786
G1 X132.197 Y70.720 E1.8303
G1 X130.719 Y69.845 E1.8817
G1 X129.145 Y69.175 E1.9329
G1 X127.503 Y68.722 E1.9839
G1 X125.819 Y68.494 E2.0348
G1 X124.121 Y68.494 E2.0856
G1 X122.436 Y68.722 E2.1365
G1 X120.794 Y69.175 E2.1875
G1 X119.221 Y69.845 E2.2387
G1 X117.742 Y70.720 E2.2901
G1 X116.382 Y71.787 E2.3419
G1 X115.164 Y73.028 E2.3939
G1 X114.107 Y74.421 E2.4463
G1 X113.229 Y75.945 E2.4989
G1 X112.620 Y77.390 E2.5459
G1 X112.543 Y77.574 F720
G1 X112.061 Y79.282 F1800
G1 X112.026 Y79.505 F1800
; inner perimeter
G1 X103.280 Y110.505 F4800
G92 E0
G1 X103.280 Y143.245 E0.9800 F810
G1 X146.720 Y143.245 E2.2804
G1 X146.720 Y110.505 E3.2604
G1 X103.480 Y110.505 E4.5548
G1 X103.280 Y110.505 F810
; outer perimeter
G1 X103.760 Y110.985 F4800
G92 E0
G1 X103.760 Y142.765 E0.9513 F720
G1 X146.240 Y142.765 E2.2229
G1 X146.240 Y110.985 E3.1742
G1 X103.960 Y110.985 E4.4398
G1 X103.760 Y110.985 F720
G92 E0
G1 X103.760 Y112.485 E-1.5000 F1800
G1 X103.760 Y112.985 F1800
G1 Z0.650 F1000
; solid layer
G1 X119.251 Y95.857 F4800
G1 Z0.150 F1000
G1 E0.0000 F1800
G92 E0
G1 X133.515 Y110.121 E0.6038 F720
G1 X134.194 Y110.121 E0.6242
G1 X120.392 Y96.319 E1.2084
G1 X121.378 Y96.663 E1.2397
G1 X121.425 Y96.673 E1.2411
G1 X134.872 Y110.121 E1.8104
G1 X135.551 Y110.121 E1.8307
G1 X122.278 Y96.848 E2.3926
G1 X123.132 Y97.022 E2.4187
G1 X136.230 Y110.121 E2.9732
G1 X136.909 Y110.121 E2.9935
G1 X123.864 Y97.076 E3.5458
G1 X124.592 Y97.125 E3.5676
G1 X137.588 Y110.121 E4.1178
G1 X138.267 Y110.121 E4.1381
G1 X125.275 Y97.130 E4.6880
G1 X125.911 Y97.087 E4.7071
G1 X138.945 Y110.121 E5.2589
G1 X139.624 Y110.121 E5.2792
G1 X126.547 Y97.044 E5.8328
G1 X126.781 Y97.028 E5.8398
G1 X127.137 Y96.955 E5.8507
G1 X140.303 Y110.121 E6.4080
G1 X140.982 Y110.121 E6.4284
G1 X127.701 Y96.840 E6.9906
G1 X128.264 Y96.724 E7.0078
G1 X141.661 Y110.121 E7.5749
G1 X142.339 Y110.121 E7.5952
G1 X128.799 Y96.580 E8.1685
G1 X129.302 Y96.405 E8.1844
G1 X143.018 Y110.121 E8.7651
G1 X143.697 Y110.121 E8.7854
G1 X129.805 Y96.229 E9.3735
G1 X130.281 Y96.063 E9.3885
G1 X130.306 Y96.051 E9.3894
G1 X144.376 Y110.121 E9.9850
G1 X145.055 Y110.121 E10.0053
G1 X130.756 Y95.822 E10.6106
G1 X131.207 Y95.594 E10.6257
G1 X145.734 Y110.121 E11.2407
G1 X146.412 Y110.121 E11.2610
G1 X131.658 Y95.366 E11.8856
G1 X131.913 Y95.237 E11.8942
G1 X132.088 Y95.117 E11.9005
G1 X147.091 Y110.121 E12.5357
G1 X147.104 Y110.121 E12.5361
G1 X147.104 Y110.133 E12.5364
G1 X192.367 Y155.396 E14.4526
G1 X193.045 Y155.396 E14.4729
G1 X132.491 Y94.841 E17.0364
G1 X132.894 Y94.565 E17.0510
G1 X193.724 Y155.396 E19.6261
G1 X194.403 Y155.396 E19.6464
G1 X133.297 Y94.290 E22.2333
G1 X133.428 Y94.200 E22.2380
G1 X133.669 Y93.984 E22.2477
G1 X195.082 Y155.396 E24.8475
G1 X195.761 Y155.396 E24.8678
G1 X134.028 Y93.663 E27.4812
G1 X134.386 Y93.342 E27.4956
G1 X196.440 Y155.396 E30.1225
G1 X197.118 Y155.396 E30.1429
G1 X134.744 Y93.022 E32.7834
G1 X134.803 Y92.969 E32.7857
G1 X135.066 Y92.665 E32.7978
G1 X197.396 Y154.995 E35.4364
G1 X197.396 Y154.316 E35.4567
G1 X135.380 Y92.300 E38.0820
G1 X135.695 Y91.936 E38.0965
G1 X197.396 Y153.637 E40.7085
G1 X197.396 Y152.958 E40.7288
G1 X136.010 Y91.572 E43.3275
G1 X136.015 Y91.566 E43.3277
G1 X136.281 Y91.165 E43.3421
G1 X197.396 Y152.280 E45.9293
G1 X197.396 Y151.601 E45.9496
G1 X136.552 Y90.756 E48.5254
G1 X136.822 Y90.348 E48.5400
G1 X197.396 Y150.922 E51.1043
G1 X197.396 Y150.243 E51.1246
G1 X137.085 Y89.932 E53.6778
G1 X137.310 Y89.478 E53.6929
G1 X197.396 Y149.564 E56.2366
G1 X197.396 Y148.885 E56.2569
G1 X137.535 Y89.025 E58.7910
G1 X137.760 Y88.571 E58.8061
G1 X197.396 Y148.207 E61.3307
G1 X197.396 Y147.528 E61.3510
G1 X137.962 Y88.094 E63.8671
G1 X138.138 Y87.591 E63.8830
G1 X197.396 Y146.849 E66.3916
G1 X197.396 Y146.170 E66.4119
G1 X138.314 Y87.088 E68.9131
G1 X138.490 Y86.585 E68.9290
G1 X197.396 Y145.491 E71.4227
G1 X197.396 Y144.813 E71.4430
G1 X138.613 Y86.030 E73.9315
G1 X138.734 Y85.472 E73.9486
G1 X197.396 Y144.134 E76.4320
G1 X197.396 Y143.455 E76.4523
G1 X138.855 Y84.914 E78.9305
G1 X138.896 Y84.724 E78.9363
G1 X138.934 Y84.314 E78.9486
G1 X197.396 Y142.776 E81.4235
G1 X197.396 Y142.097 E81.4439
G1 X138.991 Y83.692 E83.9163
G1 X139.048 Y83.070 E83.9350
G1 X197.396 Y141.418 E86.4051
G1 X197.396 Y140.740 E86.4254
G1 X139.055 Y82.399 E88.8952
G1 X139.034 Y81.698 E88.9161
G1 X197.396 Y140.061 E91.3868
G1 X197.396 Y139.382 E91.4071
G1 X139.012 Y80.998 E93.8787
G1 X139.011 Y80.961 E93.8798
G1 X138.894 Y80.201 E93.9028
G1 X197.396 Y138.703 E96.3794
G1 X197.396 Y138.024 E96.3997
G1 X138.771 Y79.399 E98.8815
G1 X138.725 Y79.098 E98.8906
G1 X138.558 Y78.507 E98.9090
G1 X197.396 Y137.345 E101.3998
G1 X197.396 Y136.667 E101.4201
G1 X138.291 Y77.562 E103.9222
G1 X138.214 Y77.288 E103.9307
G1 X137.863 Y76.455 E103.9578
G1 X197.396 Y135.988 E106.4780
G1 X197.396 Y135.309 E106.4983
G1 X137.408 Y75.321 E109.0378
G1 X137.267 Y75.180 F720
G1 X147.104 Y110.812 F4800
G92 E0
G1 X191.688 Y155.396 E1.8874 F720
G1 X191.009 Y155.396 E1.9077
G1 X147.104 Y111.491 E3.7663
G1 X147.104 Y112.170 E3.7867
G1 X190.330 Y155.396 E5.6166
G1 X189.651 Y155.396 E5.6369
G1 X147.104 Y112.849 E7.4380
G1 X147.104 Y113.528 E7.4584
G1 X188.972 Y155.396 E9.2308
G1 X188.294 Y155.396 E9.2511
G1 X147.104 Y114.206 E10.9948
G1 X147.104 Y114.885 E11.0151
G1 X187.615 Y155.396 E12.7301
G1 X186.936 Y155.396 E12.7504
G1 X147.104 Y115.564 E14.4366
G1 X147.104 Y116.243 E14.4569
G1 X186.257 Y155.396 E16.1144
G1 X185.578 Y155.396 E16.1347
G1 X147.104 Y116.922 E17.7635
G1 X147.104 Y117.600 E17.7838
G1 X184.900 Y155.396 E19.3838
G1 X184.221 Y155.396 E19.4041
G1 X147.104 Y118.279 E20.9754
G1 X147.104 Y118.958 E20.9957
G1 X183.542 Y155.396 E22.5382
G1 X182.863 Y155.396 E22.5586
G1 X147.104 Y119.637 E24.0724
